public/icons/svg/seo.svg

<svg fill="none" height="36" viewBox="0 0 36 36" width="36" xmlns="http://www.w3.org/2000/svg"><path d="m36 18c.0002 4.2383-1.4951 8.3407-4.2227 11.5847-2.7275 3.2441-6.5123 5.4216-10.6877 6.1491-4.1754.7274-8.4736-.0418-12.13758-2.1723-3.66394-2.1304-6.45859-5.4854-7.89174-9.4741-1.433144-3.9886-1.412853-8.3551.0573-12.3302 1.47016-3.97518 4.29587-7.30408 7.97945-9.40039 3.68357-2.096303 7.98877-2.825556 12.15717-2.059309 4.1685.766249 7.9329 2.978839 10.6302 6.248079.1339.15067.236.32679.3004.51782.0643.19104.0894.39309.0739.59406-.0155.20098-.0713.39677-.1642.57568-.0929.1789-.2209.33725-.3763.46559-.1555.12834-.3352.22403-.5284.28136-.1933.05733-.3961.07511-.5964.0523s-.3939-.08576-.5693-.18508-.329-.23297-.4516-.39298c-2.2062-2.67503-5.271-4.50312-8.673-5.17329-3.402-.67016-6.9312-.14101-9.9871 1.49744-3.05586 1.63846-5.44973 4.28501-6.77435 7.48942-1.32462 3.2044-1.49817 6.7688-.49112 10.0868 1.00704 3.3179 3.13248 6.1845 6.01474 8.1121 2.88223 1.9276 6.34333 2.7971 9.79433 2.4606 3.4511-.3365 6.679-1.8582 9.1346-4.3062 2.4556-2.4481 3.9873-5.6713 4.3344-9.1212h-14.925c-.3978 0-.7794-.1581-1.0607-.4394s-.4393-.6628-.4393-1.0606c0-.3979.158-.7794.4393-1.0607s.6629-.4393 1.0607-.4393h16.5c.3978 0 .7794.158 1.0607.4393s.4393.6628.4393 1.0607z"/></svg>

<svg width="36" height="36" viewBox="0 0 36 36" fill="none" xmlns="http://www.w3.org/2000/svg">
<path d="M36 18C36.0002 22.2383 34.5049 26.3407 31.7773 29.5847C29.0498 32.8288 25.265 35.0063 21.0896 35.7338C16.9142 36.4612 12.616 35.692 8.95202 33.5615C5.28808 31.4311 2.49343 28.0761 1.06028 24.0874C-0.372864 20.0988 -0.352573 15.7323 1.11758 11.7572C2.58774 7.78202 5.41345 4.45312 9.09703 2.35681C12.7806 0.260507 17.0858 -0.468746 21.2542 0.297501C25.4227 1.06375 29.1871 3.27634 31.8844 6.54558C32.0183 6.69625 32.1204 6.87237 32.1848 7.0634C32.2491 7.25444 32.2742 7.45649 32.2587 7.65746C32.2432 7.85844 32.1874 8.05423 32.0945 8.23314C32.0016 8.41204 31.8736 8.57039 31.7182 8.69873C31.5627 8.82707 31.383 8.92276 31.1898 8.98009C30.9965 9.03742 30.7937 9.0552 30.5934 9.03239C30.3931 9.00958 30.1995 8.94663 30.0241 8.84731C29.8487 8.74799 29.6951 8.61434 29.5725 8.45433C27.3663 5.7793 24.3015 3.95121 20.8995 3.28104C17.4975 2.61088 13.9683 3.14003 10.9124 4.77848C7.85654 6.41694 5.46267 9.06349 4.13805 12.2679C2.81343 15.4723 2.63988 19.0367 3.64693 22.3547C4.65397 25.6726 6.77941 28.5392 9.66167 30.4668C12.5439 32.3944 16.005 33.2639 19.456 32.9274C22.9071 32.5909 26.135 31.0692 28.5906 28.6212C31.0462 26.1731 32.5779 22.9499 32.925 19.5H18C17.6022 19.5 17.2206 19.3419 16.9393 19.0606C16.658 18.7793 16.5 18.3978 16.5 18C16.5 17.6021 16.658 17.2206 16.9393 16.9393C17.2206 16.658 17.6022 16.5 18 16.5H34.5C34.8978 16.5 35.2794 16.658 35.5607 16.9393C35.842 17.2206 36 17.6021 36 18Z"/>
</svg>
